material/.icons/material/folder-lock.svg

<svg xmlns="http://www.w3.org/2000/svg" viewBox="0 0 24 24"><path d="M20 6a2 2 0 012 2v10a2 2 0 01-2 2H4a2 2 0 01-2-2V6c0-1.11.89-2 2-2h6l2 2h8m-1 11v-4h-1v-1a3 3 0 00-3-3 3 3 0 00-3 3v1h-1v4h8m-4-6a1 1 0 011 1v1h-2v-1a1 1 0 011-1z"/></svg>

<?xml version="1.0" encoding="UTF-8"?><!DOCTYPE svg PUBLIC "-//W3C//DTD SVG 1.1//EN" "http://www.w3.org/Graphics/SVG/1.1/DTD/svg11.dtd"><svg xmlns="http://www.w3.org/2000/svg" xmlns:xlink="http://www.w3.org/1999/xlink" version="1.1" id="mdi-folder-lock" width="24" height="24" viewBox="0 0 24 24"><path d="M20,6A2,2 0 0,1 22,8V18A2,2 0 0,1 20,20H4C2.89,20 2,19.1 2,18V6C2,4.89 2.89,4 4,4H10L12,6H20M19,17V13H18V12A3,3 0 0,0 15,9A3,3 0 0,0 12,12V13H11V17H19M15,11A1,1 0 0,1 16,12V13H14V12A1,1 0 0,1 15,11Z" /></svg>
